X:148668444456900
T:6-5-7-4-5-3-12-8-4-12-10-2-6-5-6-3
%%setfont-1 Courier-Bold 8
T:$1K.516f::148:17:27:13:161:46:106:127:66:20:19:9:76:160:1:83::$0
T:$1Perm. No.: 148668444456900$0
M:3/8
L:1/8
Q:1/8=111
%%staves [1 2]
V:1 clef=treble
V:2 clef=bass
K:C
%1
[V:1]|: c'/b/c'/g/e/c/ |\
[V:2]|: [E,2C,2]z |\
%2
[V:1] c/G/c/e/G/c/ |\
[V:2] [G,2E,2]z |\
%3
[V:1] f/e/f/d/c/B/ |\
[V:2] [B,2G,2]z |\
%4
[V:1] (cGE) |\
[V:2] [E,2G,2]z |\
%5
[V:1] [d^F][d^F][d^F] |\
[V:2] C,C,C,   |\
%6
[V:1] gb/g/d/B/ |\
[V:2] [D,2B,,2]z |\
%7
[V:1] Ad/c/B/A/ \
[V:2] C,D,D,, \
%8a
[V:1]|1 [g2d2B2G2]z :|2
[V:2]|1 G,,G,/=F,/E,/D,/ :|2
%8b
[V:1] [g2d2B2G2]z |:\
[V:2] G,,B,/G,/^F,/E,/ |:\
%9
[V:1] ^faf |\
[V:2] A,^F,D, & D,D,C, |\
%10
[V:1] gb/d'/d |\
[V:2] B,,2z |\
%11
[V:1] e/c/eg |\
[V:2] [G,2C,2][E,C,] |\
%12
[V:1] [ec][dB]z |\
[V:2] G,2G,, |\
%13
[V:1] c'/b/c'/g/e/c/ |\
[V:2] [E,2C,2][G,C,] |\
%14
[V:1] c/B/c/e/G/c/ |\
[V:2] [E,2C,2][E,C,] |\
%15
[V:1] fdg   |\
[V:2] F,D,G, |\
%16
[V:1] c2z :|]
[V:2] C,G,,C,, :|]
